X:106
M:3/4
L:1/4
K:Bb
D | G2 G | .(F D) F | .(B d) c/B/ | .(B A) A | .(c A) F | (F A) c | B2 B | A.- A d | (G3/2 A/) B/G/ | (F D) B, | B2 F | G A B/c/ | d2 c/d/ | (B G) A | G2 G |["1" G2 :|["2-9" G.- G F | B2 B | B2 c/d/ | c2 =B | c.- c d | G2 G | (F A) c | B2 B | A.- A D | (G3/2 A/) B/G/ | (F D) B, | B2 F | (G A) !sintro!B/c/ | d2 c/d/ | (B G) A | G2 G | G.- G !eintro!|]
